X:1
T:Marsz Pierwszey Brygady
T:Marsz Pierwszey Brygady
T:T. Tomnikowski arr. by b3cquerel
T:March of the First Brigade Song of Piłsudski's Legions
C:T. Tomnikowski arr. by b3cquerel
%%score { 1 | 2 }
L:1/8
Q:1/4=120
M:4/4
K:Eb
V:1 treble nm="Piano" snm="Pno."
V:2 bass 
V:1
 [CEGc]3 [Cc]/[Cc]/ [EGce]3 [Ee]/[Ee]/ | [Gceg]3 [Gg]/[Gg]/ [Gceg]2 [F=Bdf]2 | %2
 [EGce]3 c [DG=Bd]2 [DGB]2 | [CEGc]2 (3[EGc][EGc][EGc] [EGc]GA^F |: [CEG]4- [CEG][Ee][Dd][Cc] | %5
 [EGce]2 [DG=Bd]3 [Bd][ce][Bd] | [DG=B]4- [DGB][GBd][GBd][Ace] | [EGc]4- [EGc]GA^F | %8
 [CEG]4- [CEG][Ee][Dd][Cc] | [EGce]2 [DG=Bd]3 [Bd][ce][df] | [ceg]3 [ceg] [dfa]2 [=Beg]2 |1 %11
 [EGc]4- [EGc]GA^F :|2 [EGc]4 .[Gc]2 C>C |: c2 [Cc]>[Cc] [cc']2 [Bb]>[Aa] | %14
 (3[Gg][Aa][Gg] [Bb]>[Aa] [Gg]2 [Cc]>[Ee] | [Gg][Cc][Ee][Gg] [dd']2 [cc']2 | %16
 [=Bdg=b]4 [Bdgb]2 [Ff]>[Gg] | [Aa][dfa]/[dfa]/ [dfa][dfa] [dfa]2 [Dd]>[Ee] | %18
 [Ff][ceg]/[ceg]/ [ceg][ceg] [ceg]2 [Ee]>[Dd] | [G,G]2 (3[A,A][G,G][A,A] [Ee]2 [Dd]2 |1 %20
 [Cc]2 (3[Cc][Cc][Cc] [Cc]2 C>C :|2 [Gce]2 [Gce][G=Be] .[Gce]GA^F |: [CEG]4- [CEG][Ee][Dd][Cc] | %23
 [EGce]2 [DG=Bd]3 [Bd][ce][Bd] | [DG=B]4- [DGB][GBd][GBd][Ace] | [EGc]4- [EGc]GA^F | %26
 [CEG]4- [CEG][Ee][Dd][Cc] | [EGce]2 [DG=Bd]3 [Bd][ce][df] | [ceg]3 [ceg] [dfa]2 [=Beg]2 |1 %29
 [EGc]4- [EGc]GA^F :|2 [EGc]6 =B2 || [CEGc]2 (3[CEGc][CEGc][CEGc] [CEGc]2 z2 | [ceg]4- [ceg]f e>d | %33
 [=Bdf]4 [Gce]4 | [G=Be]4- [GBe]d c>B | [G=Bd]4 [EGc]2 [Gc]2 | [cea]4- [cea]def | %37
 [=Bdg]4- [Bdg]fed | G2 G2 [Gce]2 [F=Bd]2 | [EGc]4- [EGc]GA^F | [CEG]4- [CEG][Ee][Dd][Cc] | %41
 [EGce]2 [DG=Bd]3 [Bd][ce][Bd] | [DG=B]4- [DGB][GBd][GBd][Ace] | [EGc]4- [EGc]GA^F | %44
 [CEG]4- [CEG][Ee][Dd][Cc] | [EGce]2 [DG=Bd]3 [Bd][ce][df] | [ceg]3 [ceg] [dfa]2 [=Beg]2 | %47
 [EGc]4 .[EGc]2 [egc']2 |] %48
V:2
 (3C,E,G, [E,G,C]2 (3E,G,C [G,CE]2 | (3CG,C [G,CE]2 (3D,G,=B, [G,B,D]2 | %2
 (3C,E,G, [E,G,C]2 (3=B,,D,F, [D,F,=B,]2 | [E,G,C]2 (3F,E,D, [C,E,G,]G,,A,,=B,, |: %4
 C,[E,G,C]G,,[E,G,C] C,[E,G,C]G,,[E,G,C] | =B,,[D,G,=B,]G,,[D,G,B,] B,,[D,G,B,]G,,[D,G,B,] | %6
 =B,,[D,G,=B,]G,,[D,G,B,] B,,[D,G,B,]G,,[D,G,B,] | C,[E,G,C]G,,[E,G,C] C,[E,G,C]=B,,[D,G,=B,] | %8
 C,[E,G,C]G,,[E,G,C] C,[E,G,C]G,,[E,G,C] | =B,,[D,G,=B,]G,,[D,G,B,] B,,[D,G,B,]G,,[D,G,B,] | %10
 D,[G,=B,D]=B,,[G,B,D] D,[G,B,D]B,,[G,B,D] |1 C,[E,G,C]G,,[E,G,C] C,[E,G,C]=B,,[D,G,=B,] :|2 %12
 C,[E,G,C]=B,,[D,G,=B,] .[C,E,]2 [C,,C,]>[C,,C,] |: [C,C]6 [B,,B,]>[A,,A,] | %14
 [G,,G,]6 [C,,C,]>[E,,E,] | [G,,G,]3 [G,,G,] [D,D]2 [C,C]2 | [=B,,=B,]6 [F,,F,]>[G,,G,] | %17
 [A,,A,]6 [D,,D,]>[E,,E,] | [F,,F,]6 [E,,E,]>[D,,D,] | [G,,,G,,]2 [G,,,G,,]2 [E,,E,]2 [D,,D,]2 |1 %20
 [C,,C,]6 [C,,C,]>[C,,C,] :|2 [C,,C,]2 [=B,,,=B,,]2 [C,,C,][G,,,G,,][A,,,A,,][B,,,B,,] |: %22
 C,[E,G,C]G,,[E,G,C] C,[E,G,C]G,,[E,G,C] | =B,,[D,G,=B,]G,,[D,G,B,] B,,[D,G,B,]G,,[D,G,B,] | %24
 =B,,[D,G,=B,]G,,[D,G,B,] B,,[D,G,B,]G,,[D,G,B,] | C,[E,G,C]G,,[E,G,C] C,[E,G,C]=B,,[D,G,=B,] | %26
 C,[E,G,C]G,,[E,G,C] C,[E,G,C]G,,[E,G,C] | =B,,[D,G,=B,]G,,[D,G,B,] B,,[D,G,B,]G,,[D,G,B,] | %28
 D,[G,=B,D]=B,,[G,B,D] D,[G,B,D]B,,[G,B,D] |1 C,[E,G,C]G,,[E,G,C] C,[E,G,C]=B,,[D,G,=B,] :|2 %30
 C,[E,G,C] [D,G,=B,]2 [E,G,C]2 [D,G,B,]2 || [C,E,G,C]2 (3[C,C][C,C][C,C] [C,C]2 z2 | [C,E,G,]8 | %33
 [C,E,G,]4 [B,,D,G,]4 | [=B,,D,G,]8 | [=B,,D,G,]4 [C,E,G,]4 | [C,E,A,]2 (3E,F,G, [C,E,A,]4 | %37
 [C,E,G,]2 (3D,E,F, [C,E,G,]4 | [E,G,C]4 [D,F,=B,]4 | %39
 [E,G,C]2 (3[F,F][E,E][D,D] [C,C][G,,G,][A,,A,][=B,,=B,] | %40
 [C,C][E,G,C]G,,[E,G,C] C,[E,G,C]G,,[E,G,C] | =B,,[D,G,=B,]G,,[D,G,B,] B,,[D,G,B,]G,,[D,G,B,] | %42
 =B,,[D,G,=B,]G,,[D,G,B,] B,,[D,G,B,]G,,[D,G,B,] | C,[E,G,C]G,,[E,G,C] C,[E,G,C]=B,,[D,G,=B,] | %44
 C,[E,G,C]G,,[E,G,C] C,[E,G,C]G,,[E,G,C] | =B,,[D,G,=B,]G,,[D,G,B,] B,,[D,G,B,]G,,[D,G,B,] | %46
 D,[G,=B,D]=B,,[G,B,D] D,[G,B,D]B,,[G,B,D] | C,[E,G,C]=B,,[D,G,=B,] .[C,E,]2 [C,,C,]2 |] %48

